img/svg/cart.svg

<svg width="21" height="20" viewBox="0 0 21 20" xmlns="http://www.w3.org/2000/svg">
<path fill-rule="evenodd" clip-rule="evenodd" d="M2.8798 2.75768C2.79028 2.75093 2.66604 2.75033 2.43306 2.75033H0.916667C0.410406 2.75033 0 2.33992 0 1.83366C0 1.3274 0.410406 0.916996 0.916667 0.916996H2.43306C2.4417 0.916996 2.45034 0.916995 2.45898 0.916994C2.65575 0.91697 2.85058 0.916946 3.01755 0.929526C3.20335 0.943526 3.41921 0.976408 3.64252 1.07602C3.9568 1.21621 4.22528 1.44203 4.41724 1.72764C4.55364 1.93058 4.62303 2.13761 4.66865 2.31827C4.70966 2.48061 4.74301 2.67256 4.77671 2.86642C4.77818 2.87494 4.77966 2.88345 4.78115 2.89197L4.99956 4.14787L16.9291 4.50099C17.3965 4.51481 17.8005 4.52676 18.1332 4.5634C18.4849 4.60213 18.8336 4.67496 19.168 4.85314C19.6748 5.12313 20.0844 5.545 20.3393 6.05956C20.5075 6.39915 20.5699 6.7498 20.5982 7.10246C20.625 7.4361 20.625 7.84027 20.625 8.30795V8.37555C20.625 8.81506 20.625 9.19632 20.6004 9.51247C20.5743 9.84775 20.5167 10.1808 20.3631 10.5071C20.1293 11.0037 19.7523 11.419 19.2804 11.6996C18.9704 11.8839 18.6445 11.9733 18.3133 12.0316C18.001 12.0865 17.6216 12.1232 17.1841 12.1656L8.26136 13.029C7.81293 13.0725 7.4244 13.1101 7.10024 13.1158C6.75679 13.1218 6.41246 13.0951 6.06676 12.9682C5.54832 12.7777 5.09924 12.4356 4.778 11.9863C4.5638 11.6867 4.44668 11.3618 4.36134 11.029C4.28079 10.715 4.21392 10.3304 4.13675 9.88658L2.97492 3.20609C2.935 2.97655 2.91312 2.85426 2.89114 2.76721C2.89036 2.76412 2.8896 2.76118 2.88887 2.7584C2.88601 2.75816 2.88298 2.75792 2.8798 2.75768ZM5.32019 5.99149L5.93719 9.53925C6.02181 10.0258 6.07681 10.3382 6.13719 10.5736C6.19478 10.7981 6.24033 10.8794 6.26935 10.92C6.37643 11.0697 6.52612 11.1838 6.69894 11.2473C6.74577 11.2645 6.83624 11.2868 7.06799 11.2827C7.31098 11.2785 7.62676 11.2486 8.11829 11.201L16.9745 10.3439C17.4543 10.2975 17.762 10.2671 17.9956 10.226C18.2181 10.1868 18.3011 10.1489 18.3435 10.1238C18.5008 10.0302 18.6264 9.89181 18.7044 9.72626C18.7254 9.68167 18.7551 9.59536 18.7726 9.37014C18.791 9.13371 18.7917 8.82451 18.7917 8.34246C18.7917 7.8305 18.791 7.50062 18.7708 7.24915C18.7515 7.00853 18.7187 6.91832 18.6964 6.87332C18.6115 6.7018 18.4749 6.56118 18.306 6.47118C18.2617 6.44757 18.1725 6.41214 17.9325 6.38572C17.6818 6.3581 17.3521 6.34765 16.8403 6.3325L5.32019 5.99149Z" />
<path fill-rule="evenodd" clip-rule="evenodd" d="M7.79167 16.042C7.28541 16.042 6.875 16.4524 6.875 16.9587C6.875 17.4649 7.28541 17.8753 7.79167 17.8753C8.29793 17.8753 8.70833 17.4649 8.70833 16.9587C8.70833 16.4524 8.29793 16.042 7.79167 16.042ZM5.04167 16.9587C5.04167 15.4399 6.27288 14.2087 7.79167 14.2087C9.31045 14.2087 10.5417 15.4399 10.5417 16.9587C10.5417 18.4774 9.31045 19.7087 7.79167 19.7087C6.27288 19.7087 5.04167 18.4774 5.04167 16.9587Z" />
<path fill-rule="evenodd" clip-rule="evenodd" d="M16.5 16.042C15.9937 16.042 15.5833 16.4524 15.5833 16.9587C15.5833 17.4649 15.9937 17.8753 16.5 17.8753C17.0063 17.8753 17.4167 17.4649 17.4167 16.9587C17.4167 16.4524 17.0063 16.042 16.5 16.042ZM13.75 16.9587C13.75 15.4399 14.9812 14.2087 16.5 14.2087C18.0188 14.2087 19.25 15.4399 19.25 16.9587C19.25 18.4774 18.0188 19.7087 16.5 19.7087C14.9812 19.7087 13.75 18.4774 13.75 16.9587Z" />
</svg>

<svg width="21" height="20" xmlns="http://www.w3.org/2000/svg"><path fill-rule="evenodd" clip-rule="evenodd" d="M2.88 2.758a6.884 6.884 0 00-.447-.008H.917a.917.917 0 010-1.833h1.542c.197 0 .392 0 .559.013.185.014.401.046.625.146.314.14.582.366.774.652.137.203.206.41.252.59.04.163.074.355.108.548l.004.026L5 4.148l11.93.353c.466.014.87.026 1.203.062.352.04.7.112 1.035.29.507.27.916.692 1.171 1.207.169.34.23.69.26 1.042.026.334.026.738.026 1.206v.068c0 .44 0 .82-.025 1.136-.026.336-.083.669-.237.995A2.75 2.75 0 0119.28 11.7c-.31.184-.636.273-.967.332-.312.054-.691.091-1.129.134l-8.923.863c-.448.043-.837.081-1.16.087-.344.006-.689-.02-1.034-.148a2.75 2.75 0 01-1.289-.982c-.214-.3-.331-.624-.417-.957-.08-.314-.147-.699-.224-1.142l-1.162-6.68a6.894 6.894 0 00-.086-.449h-.01zM5.32 5.99l.617 3.548c.085.487.14.8.2 1.035.058.224.103.305.132.346.107.15.257.264.43.327.047.018.137.04.369.036a14.93 14.93 0 001.05-.082l8.856-.857c.48-.046.788-.077 1.022-.118.222-.04.305-.077.348-.102a.918.918 0 00.36-.398c.021-.044.051-.13.069-.356.018-.236.019-.545.019-1.028 0-.512-.001-.841-.021-1.093-.02-.24-.052-.33-.075-.376a.916.916 0 00-.39-.402c-.044-.023-.134-.059-.373-.085a15.34 15.34 0 00-1.093-.054l-11.52-.34zM7.792 16.042a.917.917 0 100 1.833.917.917 0 000-1.833zm-2.75.917a2.75 2.75 0 115.5 0 2.75 2.75 0 01-5.5 0zM16.5 16.042a.917.917 0 100 1.833.917.917 0 000-1.833zm-2.75.917a2.75 2.75 0 115.5 0 2.75 2.75 0 01-5.5 0z"/></svg>
